lib/flags/af-afghanistan.svg

<svg xmlns="http://www.w3.org/2000/svg" fill="none" aria-hidden="true" viewBox="0 0 42 30"><g id="Country=AF - Afghanistan, Size=sm (36x24)" filter="url(#filter0_dd_91_29935)"><g clip-path="url(#clip0_91_29935)"><g id="flag"><mask id="mask0_91_29935" width="36" height="24" x="3" y="2" maskUnits="userSpaceOnUse" style="mask-type:alpha"><rect id="mask" width="36" height="24" x="3" y="2" fill="white"/></mask><g mask="url(#mask0_91_29935)"><g id="contents"><path id="bottom" fill="#67BD38" fill-rule="evenodd" d="M27.75 2H39V26H27.75V2Z" clip-rule="evenodd"/><path id="middle" fill="#D51700" fill-rule="evenodd" d="M14.25 2H27.75V26H14.25V2Z" clip-rule="evenodd"/><path id="middle_2" fill="#272727" fill-rule="evenodd" d="M3 2H14.25V26H3V2Z" clip-rule="evenodd"/><g id="mark"><path id="Combined Shape" fill="#F7FCFF" fill-rule="evenodd" d="M17.0485 9.97705L17.4378 10.1942C16.7891 11.1647 16.3534 12.054 16.128 12.8624C16.2234 12.9406 16.2831 13.0091 16.3441 13.103C16.5201 13.374 16.6682 13.637 16.7881 13.8922L16.2708 14.088C16.1896 13.9152 16.0939 13.7376 15.9837 13.5551C15.931 13.9494 15.9346 14.3221 15.9942 14.673C16.0888 14.6816 16.1682 14.6993 16.2601 14.729C16.5909 14.836 16.8945 14.9529 17.1709 15.0799L16.9162 15.5255C16.6805 15.4172 16.4217 15.3162 16.1397 15.2224L16.1452 15.2376C16.3857 15.8835 16.7537 16.4778 17.2502 17.0207C17.3278 17.0058 17.4001 17.0002 17.4846 17.0002C17.8366 17.0002 18.1669 17.0178 18.4755 17.053L18.4076 17.5492C18.1975 17.5251 17.9754 17.5099 17.7411 17.5036C18.1873 17.9005 18.7111 18.2665 19.313 18.6018L19.0756 18.9576C18.3292 18.5418 17.6939 18.0782 17.1706 17.567C17.1024 17.5907 17.0193 17.6221 16.9136 17.6632L16.8739 17.6785C17.3307 18.1042 17.8707 18.4957 18.4945 18.8532L18.2521 19.2062C17.5313 18.7931 16.9142 18.3342 16.4016 17.8298C16.1569 17.8856 15.9506 17.8844 15.7093 17.8215L15.8595 17.3407C15.8958 17.3501 15.9313 17.3572 15.9669 17.3616C15.491 16.7987 15.1324 16.1847 14.8919 15.5201C14.8494 15.4027 14.813 15.2832 14.7827 15.1616C14.5963 15.13 14.439 15.0678 14.2758 14.961L14.602 14.5549C14.6301 14.5733 14.6585 14.5896 14.6877 14.6038C14.6293 13.9913 14.7098 13.3302 14.9281 12.6204C14.7914 12.4805 14.7078 12.3355 14.6563 12.147L15.1341 12.0373C15.3917 11.389 15.7559 10.703 16.2261 9.97931L16.6183 10.192C16.1056 10.9811 15.7257 11.7182 15.4775 12.4036C15.5471 12.4597 15.6322 12.5198 15.7364 12.5885C15.9856 11.7824 16.4237 10.9119 17.0485 9.97705ZM15.5978 13.1187C15.5472 13.0837 15.4865 13.0433 15.4127 12.9949C15.3773 12.9717 15.3433 12.9491 15.3108 12.9269C15.1371 13.5628 15.0859 14.1504 15.1561 14.6897C15.2398 14.6903 15.3347 14.6871 15.4442 14.6809L15.5335 14.6761C15.4591 14.1895 15.4808 13.6704 15.5978 13.1187ZM15.4685 15.1784C15.5353 15.1747 15.5936 15.1717 15.6452 15.1695C15.6659 15.2376 15.6886 15.305 15.7135 15.3717C15.9548 16.0199 16.3147 16.6185 16.7925 17.1672L16.6995 17.2031C16.6196 17.2341 16.5478 17.2605 16.482 17.2826C15.9592 16.7083 15.5739 16.0774 15.3249 15.3893C15.3008 15.3228 15.2789 15.2554 15.2592 15.1872C15.3249 15.1856 15.3944 15.1826 15.4685 15.1784Z" clip-rule="evenodd"/><path id="Combined Shape_2" fill="#F7FCFF" fill-rule="evenodd" d="M24.9362 9.97705L24.547 10.1942C25.1957 11.1647 25.6314 12.054 25.8568 12.8624C25.7614 12.9406 25.7017 13.0091 25.6407 13.103C25.4647 13.374 25.3166 13.637 25.1967 13.8922L25.714 14.088C25.7952 13.9152 25.8909 13.7376 26.0011 13.5551C26.0538 13.9494 26.0502 14.3221 25.9906 14.673C25.896 14.6816 25.8166 14.6993 25.7247 14.729C25.3939 14.836 25.0903 14.9529 24.8138 15.0799L25.0686 15.5255C25.3042 15.4172 25.5631 15.3162 25.8451 15.2224L25.8395 15.2376C25.5991 15.8835 25.2311 16.4778 24.7345 17.0207C24.657 17.0058 24.5847 17.0002 24.5002 17.0002C24.1482 17.0002 23.8179 17.0178 23.5092 17.053L23.5772 17.5492C23.7872 17.5251 24.0094 17.5099 24.2437 17.5036C23.7975 17.9005 23.2737 18.2665 22.6718 18.6018L22.9092 18.9576C23.6556 18.5418 24.2909 18.0782 24.8142 17.567C24.8824 17.5907 24.9654 17.6221 25.0711 17.6632L25.1109 17.6785C24.6541 18.1042 24.1141 18.4957 23.4903 18.8532L23.7327 19.2062C24.4535 18.7931 25.0706 18.3342 25.5832 17.8298C25.8278 17.8856 26.0342 17.8844 26.2755 17.8215L26.1253 17.3407C26.089 17.3501 26.0535 17.3572 26.0179 17.3616C26.4938 16.7987 26.8524 16.1847 27.0929 15.5201C27.1354 15.4027 27.1718 15.2832 27.2021 15.1616C27.3885 15.13 27.5458 15.0678 27.709 14.961L27.3828 14.5549C27.3546 14.5733 27.3263 14.5896 27.2971 14.6038C27.3555 13.9913 27.275 13.3302 27.0567 12.6204C27.1934 12.4805 27.277 12.3355 27.3285 12.147L26.8507 12.0373C26.5931 11.389 26.2289 10.703 25.7587 9.97931L25.3665 10.192C25.8792 10.9811 26.2591 11.7182 26.5072 12.4036C26.4377 12.4597 26.3526 12.5198 26.2484 12.5885C25.9991 11.7824 25.5611 10.9119 24.9362 9.97705ZM26.387 13.1187C26.4376 13.0837 26.4983 13.0433 26.5721 12.9949C26.6075 12.9717 26.6415 12.9491 26.674 12.9269C26.8477 13.5628 26.8989 14.1504 26.8287 14.6897C26.7449 14.6903 26.6501 14.6871 26.5405 14.6809L26.4513 14.6761C26.5257 14.1895 26.504 13.6704 26.387 13.1187ZM26.5163 15.1784C26.4495 15.1747 26.3911 15.1717 26.3396 15.1695C26.3189 15.2376 26.2962 15.305 26.2713 15.3717C26.03 16.0199 25.67 16.6185 25.1923 17.1672L25.2853 17.2031C25.3651 17.2341 25.437 17.2605 25.5028 17.2826C26.0256 16.7083 26.4109 16.0774 26.6599 15.3893C26.684 15.3228 26.7059 15.2554 26.7256 15.1872C26.6599 15.1856 26.5904 15.1826 26.5163 15.1784Z" clip-rule="evenodd"/><path id="Path 403" fill="#F7FCFF" fill-rule="evenodd" d="M19.0347 18.2642L17.7788 19.3688C17.7788 19.3688 18.8618 19.9583 20.9029 19.9583C22.944 19.9583 24.1325 19.3688 24.1325 19.3688L23.1778 18.2642C23.1778 18.2642 21.877 18.7123 20.9556 18.7123C20.0343 18.7123 19.0347 18.2642 19.0347 18.2642Z" clip-rule="evenodd"/><path id="Path 404" stroke="#C00001" stroke-width="0.5" d="M19.0605 18.969C19.0605 18.969 20.1238 19.192 20.9389 19.192C21.754 19.192 22.8172 18.969 22.8172 18.969"/><path id="Combined Shape_3" fill="#F7FCFF" fill-rule="evenodd" d="M22.0034 11.4584C22.0034 11.8937 21.5581 12.247 21.0073 12.2501H22.0118L22.3644 12.4528H22.5413V10.8681H23.0885V12.4528H23.2805V12.723H23.0885V15.5965C23.0885 15.7653 23.2914 16.0552 23.7159 16.4322L24.1992 16.8614H17.4746L18.5919 16.3849C18.8022 16.2952 18.9522 16.0371 19.0171 15.5807V12.723H18.5373V12.4528H19.0171V10.8681H19.5644V12.4528H19.6224L19.9199 12.2501H20.9928C20.442 12.247 19.9967 11.8937 19.9967 11.4584C19.9967 11.0212 20.4459 10.6667 21 10.6667C21.5542 10.6667 22.0034 11.0212 22.0034 11.4584ZM19.5644 12.723H22.5413V15.5965C22.5413 15.8283 22.6645 16.0798 22.9053 16.3614H19.3386C19.4488 16.1643 19.5224 15.9186 19.5644 15.6121V12.723ZM21.0913 14.0001H19.9055V16.0834H22.2771L21.0913 14.0001Z" clip-rule="evenodd"/><path id="Path 407" fill="#F7FCFF" fill-rule="evenodd" d="M22.3154 8.15625L22.3175 8.15928L22.317 8.15813L22.3154 8.15625ZM24.0493 8.69788L24.0503 8.70717L24.0497 8.7004L24.0493 8.69788ZM24.386 8.73479L24.3878 8.73022L24.387 8.73247L24.386 8.73479ZM23.0228 9.34844L23.0291 9.34839L23.0261 9.34874L23.0228 9.34844Z" clip-rule="evenodd"/><path id="Combined Shape_4" fill="#F7FCFF" fill-rule="evenodd" d="M17.6169 12.6682L17.3928 12.8116L17.6239 13.1132C17.4259 13.1763 17.1076 13.3363 17.1076 13.7121C17.1076 14.2577 16.8921 14.7046 16.8921 14.7046L17.5358 15.072C17.5358 15.072 17.603 14.4358 17.7782 14.074C17.866 13.8926 18.0028 13.8021 18.1173 13.757L19.118 15.0626L19.3422 14.9192L17.6169 12.6682Z" clip-rule="evenodd"/><path id="Combined Shape_5" fill="#F7FCFF" fill-rule="evenodd" d="M24.4548 12.6682L24.679 12.8116L24.4478 13.1132C24.6458 13.1763 24.9642 13.3363 24.9642 13.7121C24.9642 14.2577 25.1797 14.7046 25.1797 14.7046L24.5359 15.072C24.5359 15.072 24.4688 14.4358 24.2936 14.074C24.2057 13.8925 24.069 13.8021 23.9544 13.757L22.9537 15.0626L22.7296 14.9192L24.4548 12.6682Z" clip-rule="evenodd"/></g></g></g></g></g></g><defs><filter id="filter0_dd_91_29935" width="42" height="30" x="0" y="0" color-interpolation-filters="sRGB" filterUnits="userSpaceOnUse"><feFlood flood-opacity="0" result="BackgroundImageFix"/><feColorMatrix in="SourceAlpha" result="hardAlpha" values="0 0 0 0 0 0 0 0 0 0 0 0 0 0 0 0 0 0 127 0"/><feOffset dy="1"/><feGaussianBlur stdDeviation="1"/><feColorMatrix values="0 0 0 0 0.0627451 0 0 0 0 0.0941176 0 0 0 0 0.156863 0 0 0 0.06 0"/><feBlend in2="BackgroundImageFix" result="effect1_dropShadow_91_29935"/><feColorMatrix in="SourceAlpha" result="hardAlpha" values="0 0 0 0 0 0 0 0 0 0 0 0 0 0 0 0 0 0 127 0"/><feOffset dy="1"/><feGaussianBlur stdDeviation="1.5"/><feColorMatrix values="0 0 0 0 0.0627451 0 0 0 0 0.0941176 0 0 0 0 0.156863 0 0 0 0.1 0"/><feBlend in2="effect1_dropShadow_91_29935" result="effect2_dropShadow_91_29935"/><feBlend in="SourceGraphic" in2="effect2_dropShadow_91_29935" result="shape"/></filter><clipPath id="clip0_91_29935"><rect width="36" height="24" x="3" y="2" fill="white" rx="2"/></clipPath></defs></svg>

<svg xmlns="http://www.w3.org/2000/svg" fill="none" aria-hidden="true" viewBox="0 0 42 30"><g filter="url(#a)"><g clip-path="url(#b)"><mask id="c" width="36" height="24" x="3" y="2" maskUnits="userSpaceOnUse" style="mask-type:alpha"><path fill="#fff" d="M3 2h36v24H3z"/></mask><g mask="url(#c)"><path fill="#67BD38" fill-rule="evenodd" d="M27.75 2H39v24H27.75V2Z" clip-rule="evenodd"/><path fill="#D51700" fill-rule="evenodd" d="M14.25 2h13.5v24h-13.5V2Z" clip-rule="evenodd"/><path fill="#272727" fill-rule="evenodd" d="M3 2h11.25v24H3V2Z" clip-rule="evenodd"/><path fill="#F7FCFF" fill-rule="evenodd" d="m17.049 9.977.389.217c-.649.97-1.085 1.86-1.31 2.668a.972.972 0 0 1 .216.241c.176.271.324.534.444.79l-.517.195a5.835 5.835 0 0 0-.287-.533c-.053.394-.05.767.01 1.118.095.009.174.026.266.056.33.107.634.224.91.35l-.254.446a7.63 7.63 0 0 0-.776-.303l.005.016c.24.646.609 1.24 1.105 1.783.078-.015.15-.02.235-.02.352 0 .682.017.99.052l-.067.496a7.663 7.663 0 0 0-.667-.045c.446.396.97.762 1.572 1.098l-.237.356a8.915 8.915 0 0 1-1.905-1.391 7.87 7.87 0 0 0-.257.096l-.04.015c.457.426.997.818 1.62 1.175l-.242.353a9.001 9.001 0 0 1-1.85-1.376 1.368 1.368 0 0 1-.693-.008l.15-.481c.037.01.072.016.108.02a6 6 0 0 1-1.075-1.84 3.633 3.633 0 0 1-.11-.36 1.277 1.277 0 0 1-.506-.2l.326-.406a.775.775 0 0 0 .086.049c-.059-.613.022-1.274.24-1.984a1.031 1.031 0 0 1-.272-.473l.478-.11c.258-.648.622-1.334 1.092-2.058l.392.213c-.512.79-.892 1.526-1.14 2.212.07.056.154.116.258.184.25-.806.688-1.676 1.313-2.61Zm-1.451 3.142a9.318 9.318 0 0 0-.287-.192c-.174.636-.225 1.223-.155 1.763.084 0 .179-.003.288-.01l.09-.004a4.325 4.325 0 0 1 .064-1.557Zm-.13 2.06.177-.01c.02.069.044.136.069.203a5.806 5.806 0 0 0 1.079 1.795l-.093.036c-.08.031-.152.058-.218.08a5.655 5.655 0 0 1-1.157-1.894 3.197 3.197 0 0 1-.066-.202 6.51 6.51 0 0 0 .21-.009Zm9.468-5.202-.389.217c.649.97 1.084 1.86 1.31 2.668a.972.972 0 0 0-.216.241 6.643 6.643 0 0 0-.444.79l.517.195c.081-.173.177-.35.287-.533.053.394.05.767-.01 1.118a1.165 1.165 0 0 0-.266.056 8.472 8.472 0 0 0-.911.35l.255.446a7.62 7.62 0 0 1 .776-.303l-.005.016a5.442 5.442 0 0 1-1.105 1.783A1.196 1.196 0 0 0 24.5 17a8.79 8.79 0 0 0-.99.052l.067.496c.21-.024.432-.04.667-.045a8.79 8.79 0 0 1-1.572 1.098l.237.356a8.915 8.915 0 0 0 1.905-1.391c.068.024.151.055.257.096l.04.015a8.733 8.733 0 0 1-1.62 1.175l.242.353a9.001 9.001 0 0 0 1.85-1.376c.245.056.451.054.693-.008l-.15-.481a.837.837 0 0 1-.108.02 6 6 0 0 0 1.075-1.84c.042-.118.079-.238.11-.36.186-.031.343-.093.506-.2l-.326-.406a.784.784 0 0 1-.086.049c.058-.613-.022-1.274-.24-1.984.136-.14.22-.284.271-.473l-.477-.11a11.862 11.862 0 0 0-1.092-2.058l-.393.213c.513.79.893 1.526 1.141 2.212-.07.056-.154.116-.259.184-.249-.806-.687-1.676-1.312-2.61Zm1.451 3.142a9.318 9.318 0 0 1 .287-.192c.174.636.225 1.223.155 1.763-.084 0-.179-.003-.288-.01l-.09-.004a4.325 4.325 0 0 0-.064-1.557Zm.13 2.06a14.263 14.263 0 0 0-.177-.01 3.43 3.43 0 0 1-.069.203 5.808 5.808 0 0 1-1.079 1.795l.093.036c.08.031.152.058.218.08a5.655 5.655 0 0 0 1.157-1.894c.024-.066.046-.134.066-.202a6.51 6.51 0 0 1-.21-.009Z" clip-rule="evenodd"/><path fill="#F7FCFF" fill-rule="evenodd" d="m19.035 18.264-1.256 1.105s1.083.59 3.124.59c2.041 0 3.23-.59 3.23-.59l-.955-1.105s-1.301.448-2.222.448c-.922 0-1.921-.448-1.921-.448Z" clip-rule="evenodd"/><path stroke="#C00001" stroke-width=".5" d="M19.06 18.969s1.064.223 1.879.223 1.878-.223 1.878-.223"/><path fill="#F7FCFF" fill-rule="evenodd" d="M22.003 11.458c0 .436-.445.789-.996.792h1.005l.352.203h.177v-1.585h.547v1.585h.192v.27h-.192v2.873c0 .17.203.46.628.836l.483.43h-6.724l1.117-.477c.21-.09.36-.348.425-.804v-2.858h-.48v-.27h.48v-1.585h.547v1.585h.058l.298-.203h1.073c-.551-.003-.996-.356-.996-.792 0-.437.449-.791 1.003-.791.554 0 1.003.354 1.003.791Zm-2.439 1.265h2.977v2.873c0 .232.123.484.364.765H19.34a2.11 2.11 0 0 0 .225-.749v-2.889ZM21.091 14h-1.186v2.083h2.372L21.091 14Zm1.224-5.844.002.003-.002-.003Zm1.734.542.001.01v-.01Zm.337.037.002-.005-.001.002-.001.003Zm-1.363.613h.006-.006Z" clip-rule="evenodd"/><path fill="#F7FCFF" fill-rule="evenodd" d="m17.617 12.668-.224.144.23.301c-.197.063-.515.223-.515.6 0 .545-.216.992-.216.992l.644.367s.067-.636.242-.998a.624.624 0 0 1 .34-.317l1 1.306.224-.144-1.725-2.25Zm6.838 0 .224.144-.231.301c.198.063.516.223.516.6 0 .545.216.992.216.992l-.644.367s-.067-.636-.242-.998a.624.624 0 0 0-.34-.317l-1 1.306-.224-.144 1.725-2.25Z" clip-rule="evenodd"/></g></g></g><defs><clipPath id="b"><rect width="36" height="24" x="3" y="2" fill="#fff" rx="2"/></clipPath><filter id="a" width="42" height="30" x="0" y="0" color-interpolation-filters="sRGB" filterUnits="userSpaceOnUse"><feFlood flood-opacity="0" result="BackgroundImageFix"/><feColorMatrix in="SourceAlpha" result="hardAlpha" values="0 0 0 0 0 0 0 0 0 0 0 0 0 0 0 0 0 0 127 0"/><feOffset dy="1"/><feGaussianBlur stdDeviation="1"/><feColorMatrix values="0 0 0 0 0.0627451 0 0 0 0 0.0941176 0 0 0 0 0.156863 0 0 0 0.06 0"/><feBlend in2="BackgroundImageFix" result="effect1_dropShadow_91_29935"/><feColorMatrix in="SourceAlpha" result="hardAlpha" values="0 0 0 0 0 0 0 0 0 0 0 0 0 0 0 0 0 0 127 0"/><feOffset dy="1"/><feGaussianBlur stdDeviation="1.5"/><feColorMatrix values="0 0 0 0 0.0627451 0 0 0 0 0.0941176 0 0 0 0 0.156863 0 0 0 0.1 0"/><feBlend in2="effect1_dropShadow_91_29935" result="effect2_dropShadow_91_29935"/><feBlend in="SourceGraphic" in2="effect2_dropShadow_91_29935" result="shape"/></filter></defs></svg>
